public/cloud-icons/azure/data/sql-server-automatic-tuning.svg

<svg xmlns="http://www.w3.org/2000/svg" xml:space="preserve" width="56.693" height="56.693" style="font-size:12px;overflow:visible;color-interpolation-filters:sRGB;fill-rule:evenodd;stroke-linecap:square;stroke-miterlimit:3" viewBox="0 0 56.693 56.693"><g transform="translate(-5.67 -5.67)"><title>Page-1</title><g transform="translate(5.67 -34.016)"><title>SQL Server Automatic Tuning.20250</title><title>Sheet.20251</title><g transform="translate(5.315 -14.175)"><title>Sheet.20252</title><path d="M38.98 88.26V61.83c-.14-4.73-8.81-7.97-19.49-7.97C8.82 53.86.13 57.1 0 61.83l.01 26.43c.13 4.73 8.8 8.12 19.48 8.12 10.67 0 19.36-3.39 19.49-8.12" style="fill:#fff;stroke:none;stroke-width:.019125;stroke-linecap:butt"/></g><g transform="translate(5.315 -5.315)"><title>Sheet.20253</title><path d="M19.49 96.38C8.81 96.38.13 93.14 0 88.41V52.97c.13 4.73 8.81 7.97 19.49 7.97s19.35-3.24 19.49-7.97v35.44c-.14 4.73-8.82 7.97-19.49 7.97" style="fill:#66d7f7;stroke:none;stroke-width:.019125;stroke-linecap:butt"/></g><g transform="translate(10.625 -44.292)"><title>Sheet.20254</title><ellipse cx="14.175" cy="91.949" rx="14.175" ry="4.429" style="fill:#d6e86c;stroke:none;stroke-width:.019125;stroke-linecap:butt"/></g><g transform="translate(13.53 -44.294)"><title>Sheet.20255</title><path d="M0 94.64c2.59-1.06 6.67-1.75 11.27-1.75s8.68.69 11.27 1.75c-2.59 1.06-6.67 1.74-11.27 1.74S2.59 95.7 0 94.64" style="fill:#bad80a;stroke:none;stroke-width:.019125;stroke-linecap:butt"/></g><g transform="translate(5.315 -5.317)"><title>Sheet.20256</title><path d="M19.49 60.95v35.43c-4.62 0-19.3-1.24-19.49-7.97V52.97c.19 6.82 14.7 7.98 19.49 7.98" style="fill:#00bcf2;stroke:none;stroke-width:.019125;stroke-linecap:butt"/></g><g transform="translate(21.258)"><title>Sheet.20257</title><path d="M0 68.032h28.346v28.346H0z" style="fill:#9b4f96;stroke:none;stroke-width:.019125;stroke-linecap:butt"/></g><g transform="translate(28.346 -.002)"><title>Sheet.20258</title><path d="M21.26 96.38h-7.09L0 68.03h21.26z" style="fill:#a47aaf;stroke:none;stroke-width:.019125;stroke-linecap:butt"/></g><g transform="translate(28.345 -2.66)"><title>Sheet.20259</title><path d="M14.17 87.52 0 96.38l5.31-8.86L0 82.21l14.17-8.86-5.31 8.86Z" style="fill:#fffc9e;stroke:none;stroke-width:.019125;stroke-linecap:butt"/></g><g transform="translate(28.345 -2.66)"><title>Sheet.20260</title><path d="m0 82.21 14.17-8.86-9.74 8.86 5.31 5.31L0 96.38l5.31-8.86Z" style="fill:#fc0;stroke:none;stroke-width:.019125;stroke-linecap:butt"/></g><g transform="translate(0 -.002)"><title>Sheet.20261</title><path d="M0 39.687h56.693v56.691H0z" style="fill:none;stroke:none;stroke-width:.019125;stroke-linecap:butt"/></g></g></g></svg>

<?xml version="1.0" encoding="UTF-8" standalone="no"?>
<!-- Generated by Microsoft Visio, SVG Export SQL Server Automatic Tuning.svg Page-1 -->

<svg
   xmlns:dc="http://purl.org/dc/elements/1.1/"
   xmlns:cc="http://creativecommons.org/ns#"
   xmlns:rdf="http://www.w3.org/1999/02/22-rdf-syntax-ns#"
   xmlns:svg="http://www.w3.org/2000/svg"
   xmlns="http://www.w3.org/2000/svg"
   xmlns:sodipodi="http://sodipodi.sourceforge.net/DTD/sodipodi-0.dtd"
   xmlns:inkscape="http://www.inkscape.org/namespaces/inkscape"
   width="56.692902"
   height="56.693203"
   viewBox="0 0 56.6929 56.693204"
   xml:space="preserve"
   class="st11"
   version="1.1"
   id="svg64"
   sodipodi:docname="SQL Server Automatic Tuning.svg"
   style="font-size:12px;overflow:visible;color-interpolation-filters:sRGB;fill:none;fill-rule:evenodd;stroke-linecap:square;stroke-miterlimit:3"
   inkscape:version="0.92.5 (2060ec1f9f, 2020-04-08)"><metadata
   id="metadata70"><rdf:RDF><cc:Work
       rdf:about=""><dc:format>image/svg+xml</dc:format><dc:type
         rdf:resource="http://purl.org/dc/dcmitype/StillImage" /></cc:Work></rdf:RDF></metadata><defs
   id="defs68" /><sodipodi:namedview
   pagecolor="#ffffff"
   bordercolor="#666666"
   borderopacity="1"
   objecttolerance="10"
   gridtolerance="10"
   guidetolerance="10"
   inkscape:pageopacity="0"
   inkscape:pageshadow="2"
   inkscape:window-width="640"
   inkscape:window-height="480"
   id="namedview66"
   showgrid="false"
   inkscape:zoom="2.4486917"
   inkscape:cx="28.346461"
   inkscape:cy="14.173529"
   inkscape:window-x="0"
   inkscape:window-y="0"
   inkscape:window-maximized="0"
   inkscape:current-layer="svg64" />
	<style
   type="text/css"
   id="style2">
	<![CDATA[
		.st1 {fill:#ffffff;stroke:none;stroke-linecap:butt;stroke-width:0.019125}
		.st2 {fill:#66d7f7;stroke:none;stroke-linecap:butt;stroke-width:0.019125}
		.st3 {fill:#d6e86c;stroke:none;stroke-linecap:butt;stroke-width:0.019125}
		.st4 {fill:#bad80a;stroke:none;stroke-linecap:butt;stroke-width:0.019125}
		.st5 {fill:#00bcf2;stroke:none;stroke-linecap:butt;stroke-width:0.019125}
		.st6 {fill:#9b4f96;stroke:none;stroke-linecap:butt;stroke-width:0.019125}
		.st7 {fill:#a47aaf;stroke:none;stroke-linecap:butt;stroke-width:0.019125}
		.st8 {fill:#fffc9e;stroke:none;stroke-linecap:butt;stroke-width:0.019125}
		.st9 {fill:#ffcc00;stroke:none;stroke-linecap:butt;stroke-width:0.019125}
		.st10 {fill:none;stroke:none;stroke-linecap:butt;stroke-width:0.019125}
		.st11 {fill:none;fill-rule:evenodd;font-size:12px;overflow:visible;stroke-linecap:square;stroke-miterlimit:3}
	]]>
	</style>

	<g
   id="g62"
   transform="translate(-5.66929,-5.6693265)">
		<title
   id="title4">Page-1</title>
		<g
   id="group20250-1"
   transform="translate(5.66929,-34.0157)">
			<title
   id="title6">SQL Server Automatic Tuning.20250</title>
			<g
   id="group20251-2">
				<title
   id="title8">Sheet.20251</title>
				<g
   id="shape20252-3"
   transform="translate(5.31496,-14.1746)">
					<title
   id="title10">Sheet.20252</title>
					<path
   d="M 38.98,88.26 V 61.83 C 38.84,57.1 30.17,53.86 19.49,53.86 8.82,53.86 0.13,57.1 0,61.83 l 0.01,26.43 c 0.13,4.73 8.8,8.12 19.48,8.12 10.67,0 19.36,-3.39 19.49,-8.12 z"
   class="st1"
   id="path12"
   inkscape:connector-curvature="0"
   style="fill:#ffffff;stroke:none;stroke-width:0.019125;stroke-linecap:butt" />
				</g>
				<g
   id="shape20253-5"
   transform="translate(5.31496,-5.31479)">
					<title
   id="title15">Sheet.20253</title>
					<path
   d="M 19.49,96.38 C 8.81,96.38 0.13,93.14 0,88.41 V 52.97 c 0.13,4.73 8.81,7.97 19.49,7.97 10.68,0 19.35,-3.24 19.49,-7.97 v 35.44 c -0.14,4.73 -8.82,7.97 -19.49,7.97 z"
   class="st2"
   id="path17"
   inkscape:connector-curvature="0"
   style="fill:#66d7f7;stroke:none;stroke-width:0.019125;stroke-linecap:butt" />
				</g>
				<g
   id="shape20254-7"
   transform="translate(10.6246,-44.2917)">
					<title
   id="title20">Sheet.20254</title>
					<ellipse
   cx="14.175"
   cy="91.948997"
   rx="14.175"
   ry="4.4289999"
   class="st3"
   id="ellipse22"
   style="fill:#d6e86c;stroke:none;stroke-width:0.019125;stroke-linecap:butt" />
				</g>
				<g
   id="shape20255-9"
   transform="translate(13.5301,-44.2935)">
					<title
   id="title25">Sheet.20255</title>
					<path
   d="m 0,94.64 c 2.59,-1.06 6.67,-1.75 11.27,-1.75 4.6,0 8.68,0.69 11.27,1.75 -2.59,1.06 -6.67,1.74 -11.27,1.74 C 6.67,96.38 2.59,95.7 0,94.64 Z"
   class="st4"
   id="path27"
   inkscape:connector-curvature="0"
   style="fill:#bad80a;stroke:none;stroke-width:0.019125;stroke-linecap:butt" />
				</g>
				<g
   id="shape20256-11"
   transform="translate(5.31496,-5.31657)">
					<title
   id="title30">Sheet.20256</title>
					<path
   d="M 19.49,60.95 V 96.38 C 14.87,96.38 0.19,95.14 0,88.41 V 52.97 c 0.19,6.82 14.7,7.98 19.49,7.98 z"
   class="st5"
   id="path32"
   inkscape:connector-curvature="0"
   style="fill:#00bcf2;stroke:none;stroke-width:0.019125;stroke-linecap:butt" />
				</g>
				<g
   id="shape20257-13"
   transform="translate(21.2581)">
					<title
   id="title35">Sheet.20257</title>
					<rect
   x="0"
   y="68.032402"
   width="28.3465"
   height="28.3456"
   class="st6"
   id="rect37"
   style="fill:#9b4f96;stroke:none;stroke-width:0.019125;stroke-linecap:butt" />
				</g>
				<g
   id="shape20258-15"
   transform="translate(28.3465,-0.0017716)">
					<title
   id="title40">Sheet.20258</title>
					<path
   d="M 21.26,96.38 H 14.17 L 0,68.03 h 21.26 z"
   class="st7"
   id="path42"
   inkscape:connector-curvature="0"
   style="fill:#a47aaf;stroke:none;stroke-width:0.019125;stroke-linecap:butt" />
				</g>
				<g
   id="shape20259-17"
   transform="translate(28.3447,-2.65917)">
					<title
   id="title45">Sheet.20259</title>
					<path
   d="M 14.17,87.52 0,96.38 5.31,87.52 0,82.21 14.17,73.35 8.86,82.21 Z"
   class="st8"
   id="path47"
   inkscape:connector-curvature="0"
   style="fill:#fffc9e;stroke:none;stroke-width:0.019125;stroke-linecap:butt" />
				</g>
				<g
   id="shape20260-19"
   transform="translate(28.3447,-2.65917)">
					<title
   id="title50">Sheet.20260</title>
					<path
   d="M 0,82.21 14.17,73.35 4.43,82.21 9.74,87.52 0,96.38 5.31,87.52 Z"
   class="st9"
   id="path52"
   inkscape:connector-curvature="0"
   style="fill:#ffcc00;stroke:none;stroke-width:0.019125;stroke-linecap:butt" />
				</g>
				<g
   id="shape20261-21"
   transform="translate(0,-0.0017716)">
					<title
   id="title55">Sheet.20261</title>
					<rect
   x="0"
   y="39.686798"
   width="56.692902"
   height="56.691101"
   class="st10"
   id="rect57"
   style="fill:none;stroke:none;stroke-width:0.019125;stroke-linecap:butt" />
				</g>
			</g>
		</g>
	</g>
</svg>
